X: 2
T: Flora Macdonald
R: reel
M: 4/4
L: 1/8
K: Edor
~E3F BFDF|~E3F  dFDF|E2ED EFGA|BGAG FEDF:|
|:E2ed eEED|Eeef dBAd|B2ed Bcde|1fdec dBAF:|2fdec dBAg]
|f2ef beef|g3g gaef|gfeg bag(f|f3)^d bagf|
gfeg beg(g|g3)g ^gaef|gfec dBAF|FG2G FEFD||


Tune 2629	Setting 2629

